X: 2438
T: GUARACHA WALTZ
R: waltz
B: Kerr's v.2 p.50 #438
Z: 2016 John Chambers <jc:trillian.mit.edu>
M: 3/4
L: 1/8
K: G
"Moderato."(ed) |\
(^c2d2)B2 | G4 (ed) | (^c2d2)B2 | (d2=c2)(dc) |\
(B2c2)A2 | F4 (ed) | ^cded=cA | G4 :|
|: d2 |\
(B2d2)d2 | (B2d2)d2 | gfedcB | (d2c2)c2 |\
(A2c2)c2 | (A2c2)c2 | agfedc | c2B2 :|
"Allegro."d2 |\
g2f2e2 | d2^c2d2 | e2d2^c2 | d2B2d2 |\
g2f2e2 | d2^c2d2 | e2d2^c2 | d4d2 |
ggffee | dd^ccdd | eedd^cc | ddBBdd | ggffee | dd^ccdd | e2z2[f2A2] | [g2B2D2]z2z2 |]
B6 | B6 | B2A2B2 | (d4c2) |\
A6 | A6 | A2G2A2 | B6 |\
B6| B6 | B2A2B2 | (d4c2) |\
A2^G2A2 | d2c2A2 | G6- | G2z2 G2 |
e6 | d6 | c2d3c | B6 |\
A2^G2A2 | e2d3c | B6- | B2z2 G2 |\
e6 | d6 | f2e2f2 | g6 |\
A2^G2A2 | d2c3A | "_D.C. to Allegro."G6- | G2z2 |]

%%sep 1 1 500
%%sep 1 1 500

